X:804
M:C|
L:1/8
K:E Minor
EFGA B2 Ba|gef^d e/e/e e||B|eBef geBg|fbag fddf|eBef geBg|
bgaf e/e/e eB|eBef geBg|fdAG FEDf|geBg AfGe|FdAF E/E/E E||

